images/header icon/people.svg

<svg width="25" height="25" viewBox="0 0 25 25" fill="none" xmlns="http://www.w3.org/2000/svg">
<path d="M12.6051 12.0445C9.46073 12.0445 6.91174 9.49555 6.91174 6.35122C6.91174 3.20688 9.46073 0.657898 12.6051 0.657898C15.7494 0.657898 18.2984 3.20688 18.2984 6.35122C18.2984 7.86118 17.6986 9.3093 16.6308 10.377C15.5631 11.4447 14.115 12.0445 12.6051 12.0445ZM12.6051 1.92308C10.1595 1.92308 8.17693 3.90563 8.17693 6.35122C8.17693 8.79681 10.1595 10.7794 12.6051 10.7794C15.0507 10.7794 17.0332 8.79681 17.0332 6.35122C17.0416 5.17133 16.5788 4.03687 15.7475 3.19958C14.9161 2.36229 13.785 1.89145 12.6051 1.89145V1.92308Z" fill="#212A2F"/>
<path d="M20.367 24.3737H4.84319C4.33028 24.3782 3.83907 24.1671 3.48945 23.7918C3.19611 23.4755 3.04721 23.0517 3.07826 22.6215C3.59066 17.0294 7.68352 12.81 12.6051 12.81C17.5266 12.81 21.6195 16.9977 22.1319 22.6215C22.172 23.0623 22.0225 23.4995 21.7207 23.8234C21.3656 24.187 20.8751 24.3865 20.367 24.3737ZM12.6051 14.0435C8.34142 14.0435 4.78626 17.7695 4.33712 22.7037C4.33162 22.7908 4.36389 22.8761 4.42568 22.9378C4.53496 23.0504 4.6863 23.1123 4.84319 23.1086H20.367C20.5239 23.1123 20.6752 23.0504 20.7845 22.9378C20.8463 22.8761 20.8785 22.7908 20.873 22.7037C20.4239 17.7695 16.8687 14.0435 12.6051 14.0435Z" fill="#212A2F"/>
</svg>

<svg width="25" height="25" fill="none" xmlns="http://www.w3.org/2000/svg"><path d="M12.605 12.044a5.693 5.693 0 110-11.386 5.693 5.693 0 010 11.386zm0-10.12a4.428 4.428 0 104.428 4.427 4.428 4.428 0 00-4.428-4.46v.032zm7.762 22.45H4.843a1.828 1.828 0 01-1.354-.582 1.556 1.556 0 01-.41-1.17c.512-5.593 4.605-9.812 9.526-9.812 4.922 0 9.014 4.188 9.527 9.812.04.44-.11.878-.411 1.201a1.828 1.828 0 01-1.354.55zm-7.762-10.33c-4.264 0-7.819 3.726-8.268 8.66a.304.304 0 00.089.234c.109.112.26.174.417.17h15.524a.563.563 0 00.418-.17.304.304 0 00.088-.234c-.45-4.934-4.004-8.66-8.268-8.66z" fill="#212A2F"/></svg>
